X: 36578
T: Shady Road To Clamper, The
R: polka
M: 2/4
K: Amajor
|:AA/A/ ce|aa fe|AA/A/ ce|aa f2|
AA/A/ ce|aa fe|f>e ce|1 EF A2:|2 EF AB||
|:c>c cB|ce fe|c>c cB|c/B/A B2|
c>c cB|ce fe|f/g/a ed|1 c/B/A AB:|2 c/B/A A2||

